client/public/img/game/shared/residues/gold_rock_residue.svg

<?xml version="1.0" encoding="UTF-8" standalone="no"?>
<!-- Created with Inkscape (http://www.inkscape.org/) -->

<svg
   width="94.40567"
   height="84.650978"
   viewBox="0 0 24.978167 22.397239"
   version="1.1"
   id="svg5"
   xmlns="http://www.w3.org/2000/svg"
   xmlns:svg="http://www.w3.org/2000/svg">
  <defs
     id="defs2" />
  <g
     id="layer1"
     transform="translate(-0.74486399,-1.579231)">
    <path
       id="rect790"
       style="fill:#d3a440;fill-opacity:1;stroke:#333333;stroke-width:0;stroke-linecap:butt;stroke-linejoin:round;stroke-dasharray:none"
       d="M 3.0384926,2.2146559 7.368977,3.5849041 8.6520645,8.9318086 3.1006685,7.6363066 c 0,0 -1.0422929,-5.7317789 -0.062171,-5.4216507 z" />
    <path
       id="rect790-3"
       style="fill:#aa8534;fill-opacity:1;stroke:none;stroke-width:0;stroke-linecap:butt;stroke-linejoin:round;stroke-dasharray:none"
       d="M 7.368977,3.5849041 8.6520645,8.9318086 3.1006685,7.6363066 4.1618674,4.402801 Z" />
    <path
       id="rect790-3-7"
       style="fill:#826628;fill-opacity:1;stroke:none;stroke-width:0;stroke-linecap:butt;stroke-linejoin:round;stroke-dasharray:none"
       d="M 8.0105184,6.2583536 8.6520645,8.9318086 5.8763692,8.2840556 6.2692,6.7484651 Z" />
    <path
       id="rect790-2"
       style="fill:#999999;fill-opacity:0;stroke:#5e4a1d;stroke-width:0.756099;stroke-linecap:butt;stroke-linejoin:round;stroke-dasharray:none;stroke-opacity:1"
       d="M 3.0384926,2.2146559 7.368977,3.5849041 c 0,0 1.9785646,4.9484317 1.2830875,5.3469045 -0.6954771,0.3984735 -5.551396,-1.295502 -5.551396,-1.295502 0,0 -1.2455036,-5.1349381 -0.062171,-5.4216507 1.1833335,-0.286712 -5e-6,0 -4.9e-6,0 z" />
    <path
       id="rect790-9"
       style="fill:#d3a440;fill-opacity:1;stroke:#333333;stroke-width:0;stroke-linecap:butt;stroke-linejoin:round;stroke-dasharray:none"
       d="m 14.451732,1.997614 2.436566,3.8332529 -2.454023,4.9207191 -3.419883,-4.5607804 c 0,0 2.885874,-5.0607708 3.437345,-4.1931878 z" />
    <path
       id="rect790-3-8"
       style="fill:#aa8534;fill-opacity:1;stroke:none;stroke-width:0;stroke-linecap:butt;stroke-linejoin:round;stroke-dasharray:none"
       d="M 16.888298,5.8308669 14.434275,10.751586 11.014392,6.1908056 13.905775,4.3959218 Z" />
    <path
       id="rect790-3-7-0"
       style="fill:#826628;fill-opacity:1;stroke:none;stroke-width:0;stroke-linecap:butt;stroke-linejoin:round;stroke-dasharray:none"
       d="M 15.661286,8.2912231 14.434275,10.751586 12.724337,8.4711963 14.012322,7.5473722 Z" />
    <path
       id="rect790-2-9"
       style="fill:#999999;fill-opacity:0;stroke:#5e4a1d;stroke-width:0.756099;stroke-linecap:butt;stroke-linejoin:round;stroke-dasharray:none;stroke-opacity:1"
       d="m 14.451732,1.997614 2.436566,3.8332529 c 0,0 -1.665123,5.0625151 -2.454023,4.9207191 -0.7889,-0.141795 -3.419883,-4.5607804 -3.419883,-4.5607804 0,0 2.346564,-4.7341847 3.437345,-4.1931878 1.090781,0.5409982 -4e-6,-3.2e-6 -5e-6,-3.8e-6 z" />
    <path
       id="rect790-4"
       style="fill:#d3a440;fill-opacity:1;stroke:#333333;stroke-width:0;stroke-linecap:butt;stroke-linejoin:round;stroke-dasharray:none"
       d="m 25.159869,7.2852606 -0.597451,4.5026344 -5.042867,2.192075 0.311831,-5.6920183 c 0,0 5.463708,-2.0217711 5.328488,-1.0026852 z" />
    <path
       id="rect790-3-2"
       style="fill:#aa8534;fill-opacity:1;stroke:none;stroke-width:0;stroke-linecap:butt;stroke-linejoin:round;stroke-dasharray:none"
       d="m 24.562418,11.787895 -5.042867,2.192075 0.311831,-5.6920183 3.368656,0.4835837 z" />
    <path
       id="rect790-3-7-9"
       style="fill:#826628;fill-opacity:1;stroke:none;stroke-width:0;stroke-linecap:butt;stroke-linejoin:round;stroke-dasharray:none"
       d="m 22.040987,12.88393 -2.521436,1.09604 0.155918,-2.846007 1.580475,0.12021 z" />
    <path
       id="rect790-2-8"
       style="fill:#999999;fill-opacity:0;stroke:#5e4a1d;stroke-width:0.756099;stroke-linecap:butt;stroke-linejoin:round;stroke-dasharray:none;stroke-opacity:1"
       d="m 25.159869,7.2852606 -0.597451,4.5026344 c 0,0 -4.52968,2.807793 -5.042867,2.192075 -0.513188,-0.615717 0.311831,-5.6920183 0.311831,-5.6920183 0,0 4.840647,-2.1182546 5.328488,-1.0026852 0.487839,1.1155685 -1e-6,-5.9e-6 -1e-6,-5.9e-6 z" />
    <path
       id="rect790-21"
       style="fill:#d3a440;fill-opacity:1;stroke:#333333;stroke-width:0;stroke-linecap:butt;stroke-linejoin:round;stroke-dasharray:none"
       d="m 24.766199,20.533237 -3.351912,3.065185 -5.272099,-1.562266 3.897636,-4.159899 c 0,0 5.485012,1.963238 4.726372,2.656984 z" />
    <path
       id="rect790-3-4"
       style="fill:#aa8534;fill-opacity:1;stroke:none;stroke-width:0;stroke-linecap:butt;stroke-linejoin:round;stroke-dasharray:none"
       d="m 21.414287,23.598422 -5.272099,-1.562266 3.897636,-4.159899 2.269698,2.535778 z" />
    <path
       id="rect790-3-7-93"
       style="fill:#826628;fill-opacity:1;stroke:none;stroke-width:0;stroke-linecap:butt;stroke-linejoin:round;stroke-dasharray:none"
       d="m 18.778241,22.817288 -2.636053,-0.781132 1.948818,-2.079946 1.133445,1.107997 z" />
    <path
       id="rect790-2-5"
       style="fill:#999999;fill-opacity:0;stroke:#5e4a1d;stroke-width:0.756099;stroke-linecap:butt;stroke-linejoin:round;stroke-dasharray:none;stroke-opacity:1"
       d="m 24.766199,20.533237 -3.351912,3.065185 c 0,0 -5.27475,-0.760728 -5.272099,-1.562266 0.0027,-0.801538 3.897636,-4.159899 3.897636,-4.159899 0,0 5.069738,1.488831 4.726372,2.656984 -0.343367,1.168154 3e-6,-4e-6 3e-6,-4e-6 z" />
    <path
       id="rect790-91"
       style="fill:#d3a440;fill-opacity:1;stroke:#333333;stroke-width:0;stroke-linecap:butt;stroke-linejoin:round;stroke-dasharray:none"
       d="m 14.254985,21.326458 -4.3304825,-1.370249 -1.283087,-5.346904 5.5513955,1.295501 c 0,0 1.042292,5.73178 0.06217,5.421651 z" />
    <path
       id="rect790-3-3"
       style="fill:#aa8534;fill-opacity:1;stroke:none;stroke-width:0;stroke-linecap:butt;stroke-linejoin:round;stroke-dasharray:none"
       d="m 9.9245025,19.956209 -1.283087,-5.346904 5.5513955,1.295501 -1.061199,3.233506 z" />
    <path
       id="rect790-3-7-8"
       style="fill:#826628;fill-opacity:1;stroke:none;stroke-width:0;stroke-linecap:butt;stroke-linejoin:round;stroke-dasharray:none"
       d="m 9.2829615,17.28276 -0.641546,-2.673455 2.7756955,0.647753 -0.392832,1.53559 z" />
    <path
       id="rect790-2-86"
       style="fill:#999999;fill-opacity:0;stroke:#5e4a1d;stroke-width:0.756099;stroke-linecap:butt;stroke-linejoin:round;stroke-dasharray:none;stroke-opacity:1"
       d="M 14.254985,21.326458 9.9245025,19.956209 c 0,0 -1.978565,-4.948432 -1.283087,-5.346904 0.695477,-0.398474 5.5513955,1.295501 5.5513955,1.295501 0,0 1.245503,5.134938 0.06217,5.421651 -1.183334,0.286712 4e-6,10e-7 4e-6,10e-7 z" />
    <path
       id="rect790-0"
       style="fill:#d3a440;fill-opacity:1;stroke:#333333;stroke-width:0;stroke-linecap:butt;stroke-linejoin:round;stroke-dasharray:none"
       d="m 1.3080309,18.517161 0.5974502,-4.502635 5.0428678,-2.192074 -0.3118306,5.692019 c 0,0 -5.4637083,2.02177 -5.3284882,1.002685 z" />
    <path
       id="rect790-3-0"
       style="fill:#aa8534;fill-opacity:1;stroke:none;stroke-width:0;stroke-linecap:butt;stroke-linejoin:round;stroke-dasharray:none"
       d="M 1.9054811,14.014526 6.9483489,11.822452 6.6365183,17.514471 3.2678612,17.030886 Z" />
    <path
       id="rect790-3-7-7"
       style="fill:#826628;fill-opacity:1;stroke:none;stroke-width:0;stroke-linecap:butt;stroke-linejoin:round;stroke-dasharray:none"
       d="M 4.426913,12.918492 6.9483489,11.822452 6.7924311,14.668459 5.2119548,14.548248 Z" />
    <path
       id="rect790-2-1"
       style="fill:#999999;fill-opacity:0;stroke:#5e4a1d;stroke-width:0.756099;stroke-linecap:butt;stroke-linejoin:round;stroke-dasharray:none;stroke-opacity:1"
       d="m 1.3080309,18.517161 0.5974502,-4.502635 c 0,0 4.52968,-2.807792 5.0428678,-2.192074 0.5131876,0.615717 -0.3118306,5.692019 -0.3118306,5.692019 0,0 -4.8406474,2.118254 -5.3284882,1.002685 -0.48784004,-1.115569 8e-7,5e-6 8e-7,5e-6 z" />
  </g>
</svg>

<svg xmlns="http://www.w3.org/2000/svg" width="94.406" height="84.651" viewBox="0 0 24.978 22.397"><path d="m3.038 2.215 4.331 1.37 1.283 5.347-5.551-1.296s-1.043-5.731-.063-5.421z" style="fill:#d3a440;fill-opacity:1;stroke:#333;stroke-width:0;stroke-linecap:butt;stroke-linejoin:round;stroke-dasharray:none" transform="translate(-.745 -1.58)"/><path d="m7.369 3.585 1.283 5.347-5.551-1.296 1.06-3.233Z" style="fill:#aa8534;fill-opacity:1;stroke:none;stroke-width:0;stroke-linecap:butt;stroke-linejoin:round;stroke-dasharray:none" transform="translate(-.745 -1.58)"/><path d="m8.01 6.258.642 2.674-2.776-.648.393-1.536Z" style="fill:#826628;fill-opacity:1;stroke:none;stroke-width:0;stroke-linecap:butt;stroke-linejoin:round;stroke-dasharray:none" transform="translate(-.745 -1.58)"/><path fill="none" d="m3.038 2.215 4.331 1.37s1.979 4.948 1.283 5.347c-.695.398-5.551-1.296-5.551-1.296s-1.246-5.135-.063-5.421z" style="fill:#999;fill-opacity:0;stroke:#5e4a1d;stroke-width:.756099;stroke-linecap:butt;stroke-linejoin:round;stroke-dasharray:none;stroke-opacity:1" transform="translate(-.745 -1.58)"/><path d="m14.452 1.998 2.436 3.833-2.454 4.92-3.42-4.56S13.9 1.13 14.452 1.998z" style="fill:#d3a440;fill-opacity:1;stroke:#333;stroke-width:0;stroke-linecap:butt;stroke-linejoin:round;stroke-dasharray:none" transform="translate(-.745 -1.58)"/><path d="m16.888 5.83-2.454 4.922-3.42-4.561 2.892-1.795Z" style="fill:#aa8534;fill-opacity:1;stroke:none;stroke-width:0;stroke-linecap:butt;stroke-linejoin:round;stroke-dasharray:none" transform="translate(-.745 -1.58)"/><path d="m15.661 8.291-1.227 2.46-1.71-2.28 1.288-.924Z" style="fill:#826628;fill-opacity:1;stroke:none;stroke-width:0;stroke-linecap:butt;stroke-linejoin:round;stroke-dasharray:none" transform="translate(-.745 -1.58)"/><path fill="none" d="m14.452 1.998 2.436 3.833s-1.665 5.062-2.454 4.92c-.789-.141-3.42-4.56-3.42-4.56s2.347-4.734 3.438-4.193c1.09.54 0 0 0 0z" style="fill:#999;fill-opacity:0;stroke:#5e4a1d;stroke-width:.756099;stroke-linecap:butt;stroke-linejoin:round;stroke-dasharray:none;stroke-opacity:1" transform="translate(-.745 -1.58)"/><path d="m25.16 7.285-.598 4.503-5.042 2.192.311-5.692s5.464-2.022 5.329-1.003z" style="fill:#d3a440;fill-opacity:1;stroke:#333;stroke-width:0;stroke-linecap:butt;stroke-linejoin:round;stroke-dasharray:none" transform="translate(-.745 -1.58)"/><path d="M24.562 11.788 19.52 13.98l.311-5.692 3.369.484z" style="fill:#aa8534;fill-opacity:1;stroke:none;stroke-width:0;stroke-linecap:butt;stroke-linejoin:round;stroke-dasharray:none" transform="translate(-.745 -1.58)"/><path d="M22.041 12.884 19.52 13.98l.155-2.846 1.58.12z" style="fill:#826628;fill-opacity:1;stroke:none;stroke-width:0;stroke-linecap:butt;stroke-linejoin:round;stroke-dasharray:none" transform="translate(-.745 -1.58)"/><path fill="none" d="m25.16 7.285-.598 4.503s-4.53 2.808-5.042 2.192c-.514-.616.311-5.692.311-5.692s4.841-2.118 5.329-1.003c.488 1.116 0 0 0 0z" style="fill:#999;fill-opacity:0;stroke:#5e4a1d;stroke-width:.756099;stroke-linecap:butt;stroke-linejoin:round;stroke-dasharray:none;stroke-opacity:1" transform="translate(-.745 -1.58)"/><path d="m24.766 20.533-3.352 3.065-5.272-1.562 3.898-4.16s5.485 1.963 4.726 2.657z" style="fill:#d3a440;fill-opacity:1;stroke:#333;stroke-width:0;stroke-linecap:butt;stroke-linejoin:round;stroke-dasharray:none" transform="translate(-.745 -1.58)"/><path d="m21.414 23.598-5.272-1.562 3.898-4.16 2.27 2.536z" style="fill:#aa8534;fill-opacity:1;stroke:none;stroke-width:0;stroke-linecap:butt;stroke-linejoin:round;stroke-dasharray:none" transform="translate(-.745 -1.58)"/><path d="m18.778 22.817-2.636-.78 1.949-2.08 1.133 1.107z" style="fill:#826628;fill-opacity:1;stroke:none;stroke-width:0;stroke-linecap:butt;stroke-linejoin:round;stroke-dasharray:none" transform="translate(-.745 -1.58)"/><path fill="none" d="m24.766 20.533-3.352 3.065s-5.274-.76-5.272-1.562c.003-.801 3.898-4.16 3.898-4.16s5.07 1.49 4.726 2.657c-.343 1.168 0 0 0 0z" style="fill:#999;fill-opacity:0;stroke:#5e4a1d;stroke-width:.756099;stroke-linecap:butt;stroke-linejoin:round;stroke-dasharray:none;stroke-opacity:1" transform="translate(-.745 -1.58)"/><path d="m14.255 21.326-4.33-1.37L8.64 14.61l5.552 1.296s1.042 5.732.062 5.421z" style="fill:#d3a440;fill-opacity:1;stroke:#333;stroke-width:0;stroke-linecap:butt;stroke-linejoin:round;stroke-dasharray:none" transform="translate(-.745 -1.58)"/><path d="M9.925 19.956 8.64 14.61l5.552 1.296-1.061 3.233z" style="fill:#aa8534;fill-opacity:1;stroke:none;stroke-width:0;stroke-linecap:butt;stroke-linejoin:round;stroke-dasharray:none" transform="translate(-.745 -1.58)"/><path d="m9.283 17.283-.642-2.674 2.776.648-.393 1.536z" style="fill:#826628;fill-opacity:1;stroke:none;stroke-width:0;stroke-linecap:butt;stroke-linejoin:round;stroke-dasharray:none" transform="translate(-.745 -1.58)"/><path fill="none" d="m14.255 21.326-4.33-1.37s-1.98-4.948-1.284-5.347c.696-.398 5.552 1.296 5.552 1.296s1.245 5.135.062 5.421z" style="fill:#999;fill-opacity:0;stroke:#5e4a1d;stroke-width:.756099;stroke-linecap:butt;stroke-linejoin:round;stroke-dasharray:none;stroke-opacity:1" transform="translate(-.745 -1.58)"/><path d="m1.308 18.517.597-4.502 5.043-2.193-.311 5.692s-5.464 2.022-5.329 1.003z" style="fill:#d3a440;fill-opacity:1;stroke:#333;stroke-width:0;stroke-linecap:butt;stroke-linejoin:round;stroke-dasharray:none" transform="translate(-.745 -1.58)"/><path d="m1.905 14.015 5.043-2.193-.311 5.692-3.37-.483Z" style="fill:#aa8534;fill-opacity:1;stroke:none;stroke-width:0;stroke-linecap:butt;stroke-linejoin:round;stroke-dasharray:none" transform="translate(-.745 -1.58)"/><path d="m4.427 12.918 2.521-1.096-.156 2.846-1.58-.12Z" style="fill:#826628;fill-opacity:1;stroke:none;stroke-width:0;stroke-linecap:butt;stroke-linejoin:round;stroke-dasharray:none" transform="translate(-.745 -1.58)"/><path fill="none" d="m1.308 18.517.597-4.502s4.53-2.808 5.043-2.193c.514.616-.311 5.692-.311 5.692s-4.841 2.119-5.329 1.003c-.488-1.115 0 0 0 0z" style="fill:#999;fill-opacity:0;stroke:#5e4a1d;stroke-width:.756099;stroke-linecap:butt;stroke-linejoin:round;stroke-dasharray:none;stroke-opacity:1" transform="translate(-.745 -1.58)"/></svg>
